X: 26631
T: Mickey Mor Doherty's March
R: polka
M: 2/4
K: Bmixolydian
(A/B/)|cc d>B|c>A F>e|ff ge|f3 (A/B/)|
cc d>B|cA G(A/B/)|cc BG|HF3||
g|aa bg|fe c>g|aa bg|(f2 e)g|
aa b(a/g/)|fe c (c/d/)|_ee d>A|B3||

